X: 35428
T: Routin' Linn
R: reel
M: 4/4
K: Gmajor
B,C|DGGF G2GA|BGAG EGGE|DGGA (3B^cd ge|dBAc BGEC|
DGGF G2GA|~B3e d2ef|g2bg (3efg dc|BdcA G2:|
K:Gmix
|:Bc|d2g=f agfd|cABG AFDE|~F2cF dFcd|gfdc BGBc|
d2gf agfa|gdBd cAFA|_BDFG Addc|=BdcA G2:|

